src/assets/images/bg/bg-hero.svg

<svg height="780" viewBox="0 0 1440 780" width="1440" xmlns="http://www.w3.org/2000/svg" xmlns:xlink="http://www.w3.org/1999/xlink"><linearGradient id="a"><stop offset="0" stop-color="#fff"/><stop offset="1" stop-color="#fff" stop-opacity="0"/></linearGradient><radialGradient id="b" cx="50%" cy="0%" gradientTransform="matrix(0 1 -.541291 0 .5 -.5)" r="100%" xlink:href="#a"/><radialGradient id="c" cx="50%" cy="0%" gradientTransform="matrix(0 1 -.540849 0 .5 -.5)" r="100%" xlink:href="#a"/><radialGradient id="d" cx="50%" cy="30.541746%" gradientTransform="matrix(0 1 -.73936621 0 .725815 -.194583)" r="69.458254%" xlink:href="#a"/><radialGradient id="e" cx="51.011124%" cy="53.67705%" gradientTransform="matrix(0 1 -.65338169 0 .860827 .02666)" r="69.458254%" xlink:href="#a"/><g fill="none" fill-rule="evenodd" transform="translate(-1)"><path d="m1442 291.791719c0-223.7706537-713.189319-48.812165-969.944313-291.791719-31.41398.21087246-188.432542.21087246-471.055687 0v780h1439.9486c.70093-285.006957 1.0514-447.74305 1.0514-488.208281z" fill="url(#b)" opacity=".1"/><path d="m1441.97823 333.23641c-14.96108-356.23641-989.97823 183.928474-1330.592354-333.23641-31.4135049.21087246-68.208797.21087246-110.385876 0v780h1439.92685c2.5936-252.775968 2.94406-401.697165 1.05138-446.76359z" fill="url(#c)" opacity=".1"/><path d="m1442 438.033075c-55.61556-547.033075-765.348962 239.327394-1440.99988185-12.096576-1.33349087 204.712374-1.33349087 322.733541 0 354.063501h1439.94848185c.70093-187.516217 1.0514-301.505192 1.0514-341.966925z" fill="url(#d)" opacity=".1"/><path d="m1442 517.249573c-110.86284-623.311803-440.89685 327.916969-1440.99989695 167.027816-.0000687 23.814979-.00009923 55.715129-.0000916 95.70045h1439.92683855c.71543-134.73225 1.07315-222.308338 1.07315-262.728266z" fill="url(#e)" opacity=".08"/></g></svg>

<?xml version="1.0" encoding="UTF-8"?>
<svg width="1440px" height="780px" viewBox="0 0 1440 780" version="1.1" xmlns="http://www.w3.org/2000/svg" xmlns:xlink="http://www.w3.org/1999/xlink">
    <!-- Generator: Sketch 53.2 (72643) - https://sketchapp.com -->
    <title>Background Shades</title>
    <desc>Created with Sketch.</desc>
    <defs>
        <radialGradient cx="50%" cy="0%" fx="50%" fy="0%" r="100%" gradientTransform="translate(0.500000,0.000000),scale(0.541291,1.000000),rotate(90.000000),translate(-0.500000,-0.000000)" id="radialGradient-1">
            <stop stop-color="#FFFFFF" offset="0%"></stop>
            <stop stop-color="#FFFFFF" stop-opacity="0" offset="100%"></stop>
        </radialGradient>
        <radialGradient cx="50%" cy="0%" fx="50%" fy="0%" r="100%" gradientTransform="translate(0.500000,0.000000),scale(0.540849,1.000000),rotate(90.000000),translate(-0.500000,-0.000000)" id="radialGradient-2">
            <stop stop-color="#FFFFFF" offset="0%"></stop>
            <stop stop-color="#FFFFFF" stop-opacity="0" offset="100%"></stop>
        </radialGradient>
        <radialGradient cx="50%" cy="30.541746%" fx="50%" fy="30.541746%" r="69.458254%" gradientTransform="translate(0.500000,0.305417),scale(0.374565,1.000000),rotate(90.000000),scale(1.000000,1.973933),translate(-0.500000,-0.305417)" id="radialGradient-3">
            <stop stop-color="#FFFFFF" offset="0%"></stop>
            <stop stop-color="#FFFFFF" stop-opacity="0" offset="100%"></stop>
        </radialGradient>
        <radialGradient cx="51.0111235%" cy="53.6770501%" fx="51.0111235%" fy="53.6770501%" r="69.458254%" gradientTransform="translate(0.510111,0.536771),scale(0.331005,1.000000),rotate(90.000000),scale(1.000000,1.973933),translate(-0.510111,-0.536771)" id="radialGradient-4">
            <stop stop-color="#FFFFFF" offset="0%"></stop>
            <stop stop-color="#FFFFFF" stop-opacity="0" offset="100%"></stop>
        </radialGradient>
    </defs>
    <g id="Page-1" stroke="none" stroke-width="1" fill="none" fill-rule="evenodd">
        <g id="Nebular-Landing-2.2">
            <g id="Background-Shades" transform="translate(-1.000000, 0.000000)">
                <path d="M1442,291.791719 C1442,68.0210653 728.810681,242.979554 472.055687,0 C440.641707,0.210872459 283.623145,0.210872459 1,0 L1,780 L1440.9486,780 C1441.64953,494.993043 1442,332.25695 1442,291.791719 Z" id="Path-5" fill="url(#radialGradient-1)" opacity="0.1"></path>
                <path d="M1441.97823,333.23641 C1427.01715,-23 452,517.164884 111.385876,0 C79.9723711,0.210872459 43.177079,0.210872459 1,0 L1,780 L1440.92685,780 C1443.52045,527.224032 1443.87091,378.302835 1441.97823,333.23641 Z" id="Path-5" fill="url(#radialGradient-2)" opacity="0.1"></path>
                <path d="M1442,438.033075 C1386.38444,-109 676.651038,677.360469 1.00011815,425.936499 C-0.333372716,630.648873 -0.333372716,748.67004 1.00011815,780 L1440.9486,780 C1441.64953,592.483783 1442,478.494808 1442,438.033075 Z" id="Path-5" fill="url(#radialGradient-3)" opacity="0.1"></path>
                <path d="M1442,517.249573 C1331.13716,-106.06223 1001.10315,845.166542 1.00010305,684.277389 C1.00003435,708.092368 1.00000382,739.992518 1.00001145,779.977839 L1440.92685,779.977839 C1441.64228,645.245589 1442,557.669501 1442,517.249573 Z" id="Path-5" fill="url(#radialGradient-4)" opacity="0.08"></path>
            </g>
        </g>
    </g>
</svg>
